X:24
T:Hunter's Purse, The
S:Trad, arr. Paddy O'Brien 
R:reel
E:9
I:speed 350
M:C|
K:G
Bd| eAAB AGEF|~G2AF GE~D2|cBcd efed|cdef gedB|\
~A2GB AGEF|*GBAF GE~D2|cBcd efed|cABGA2:|\
Bd|eaab agef|geaf gedB|*cBcd (3efg ed|cdef g2ed|\
eaab aged|~g2 af gedB|cBcd efed|cABG A2:|**

